svgs/playstation.svg

<svg width="192" height="192" viewBox="0 0 192 192" fill="none" xmlns="http://www.w3.org/2000/svg">
<path d="M76.8357 37V146.419L101.598 154.281V62.4996C101.598 58.2106 103.515 55.3263 106.607 56.3334C110.648 57.4509 111.434 61.4086 111.434 65.7064V102.359C126.876 109.811 139.019 102.354 139.019 82.6855C139.019 62.4996 131.912 53.5463 110.949 46.3332C102.697 43.5681 87.3703 38.9435 76.8357 37Z" stroke="black" stroke-width="8" stroke-linecap="round" stroke-linejoin="round"/>
<path d="M106.288 138.295L146.117 124.094C150.631 122.477 151.329 120.18 147.658 118.983C143.992 117.786 137.349 118.135 132.835 119.748L106.288 129.103V114.226L107.816 113.714C107.816 113.714 115.489 110.993 126.262 109.796C137.048 108.625 150.255 109.951 160.613 113.891C172.301 117.588 173.613 123.016 170.649 126.757C167.672 130.507 160.406 133.184 160.406 133.184L106.288 152.619V138.295Z" stroke="black" stroke-width="8" stroke-linecap="round" stroke-linejoin="round"/>
<path d="M31.4122 136.781C19.4243 133.402 17.4234 126.383 22.8829 122.328C27.9492 118.578 36.536 115.769 36.536 115.769L72.0313 103.158V117.531L46.4876 126.679C41.9689 128.295 41.2887 130.592 44.9416 131.78C48.621 132.991 55.2554 132.646 59.7785 131.021L72.0313 126.582V139.453C71.2495 139.585 70.3882 139.722 69.5931 139.85C57.3314 141.851 44.2746 141.021 31.4122 136.781Z" stroke="black" stroke-width="8" stroke-linecap="round" stroke-linejoin="round"/>
</svg>

<svg width="192" height="192" viewBox="0 0 192 192" fill="none" xmlns="http://www.w3.org/2000/svg"><path d="M76.836 37v109.419l24.762 7.862V62.5c0-4.29 1.917-7.174 5.009-6.167 4.041 1.118 4.827 5.076 4.827 9.373v36.653c15.442 7.452 27.585-.005 27.585-19.673 0-20.186-7.107-29.14-28.07-36.353-8.252-2.765-23.579-7.39-34.113-9.333Z" stroke="#000" stroke-width="8" stroke-linecap="round" stroke-linejoin="round"/><path d="m106.288 138.295 39.829-14.201c4.514-1.617 5.212-3.914 1.541-5.111-3.666-1.197-10.309-.848-14.823.765l-26.547 9.355v-14.877l1.528-.512s7.673-2.721 18.446-3.918c10.786-1.171 23.993.155 34.351 4.095 11.688 3.697 13 9.125 10.036 12.866-2.977 3.75-10.243 6.427-10.243 6.427l-54.118 19.435v-14.324ZM31.412 136.781c-11.988-3.379-13.989-10.398-8.53-14.453 5.067-3.75 13.654-6.559 13.654-6.559l35.495-12.611v14.373l-25.543 9.148c-4.52 1.616-5.2 3.913-1.546 5.101 3.679 1.211 10.313.866 14.837-.759l12.252-4.439v12.871c-.782.132-1.643.269-2.438.397-12.262 2.001-25.318 1.171-38.18-3.069Z" stroke="#000" stroke-width="8" stroke-linecap="round" stroke-linejoin="round"/></svg>
